X: 23186
T: Le Rochefort
R: reel
M: 4/4
K: Amajor
a2ed cAGA|F2GA E2 (3efg|a2ed cABc|dABc defg|
a2ed cAGA|FAGA Ee fg|a2ed cABc|dcBc BA bg:|
|:a2fa g2eg|f2df e2cA|dBcd ABBE|DEdE cBAc|
~B2GB AcBA|F2AF EGBG|1 EBGB A2z2|f2df ef g/f/e:|2 AcBA F2AF|EGBG A2z2||

